source/images/adrianmejia-logo-old-20160818.svg

<?xml version="1.0" encoding="UTF-8" standalone="no"?>
<svg width="198px" height="31px" viewBox="0 0 198 31" version="1.1" xmlns="http://www.w3.org/2000/svg" xmlns:xlink="http://www.w3.org/1999/xlink">
    <!-- Generator: Sketch 39.1 (31720) - http://www.bohemiancoding.com/sketch -->
    <title>adrianmejia-logo</title>
    <desc>Created with Sketch.</desc>
    <defs>
        <path d="M26,19.3718857 L26,23.2461309 L24.0115823,24.4313514 L24.0115823,13.1748923 C24.0115823,12.8788348 23.939654,12.5700701 23.7964368,12.2485985 C23.6530597,11.9279519 23.4375945,11.6135764 23.1508404,11.3048118 C22.8164538,10.9595763 22.4668822,10.7186376 22.1016464,10.5831508 C21.7381687,10.4470039 21.2150103,10.3795081 20.5336096,10.3795081 L12.6291697,10.3795081 L0,10.3795081 L0,7.74849026 L6.50055944,3.87432764 L13,0 L19.4996004,3.87432764 L26,7.74865528 L26,11.623148 L26,19.3718857 L26,19.3718857 Z" id="path-1"></path>
        <rect id="path-3" x="0" y="0" width="34" height="34"></rect>
    </defs>
    <g id="Logo-Final" stroke="none" stroke-width="1" fill="none" fill-rule="evenodd">
        <g id="adrianmejia-logo" transform="translate(-4.000000, -2.000000)">
            <g id="adrianmejia-text-logo" transform="translate(40.000000, 2.000000)" font-size="25" font-family="Orbitron-Medium, Orbitron" font-weight="400">
                <text id="Adrian" fill="#0E557E">
                    <tspan x="0" y="24">Adrian</tspan>
                </text>
                <text id="Mejia" fill="#7E8183">
                    <tspan x="94" y="24">Mejia</tspan>
                </text>
            </g>
            <g id="logo-adrianmejia">
                <g transform="translate(4.000000, 2.000000)">
                    <path d="M21.3982301,25.9758028 L19.4710008,27.1263357 L12.9809864,31 L6.49097203,27.1263357 L0,23.2523414 L0,15.5050128 L0,12.534879 L8.67053666,12.534879 C9.00443013,12.534879 9.26969348,12.5682087 9.46680555,12.636683 C9.66391761,12.7043323 9.83357763,12.8180161 9.97674323,12.9785594 C10.1200684,13.1386077 10.2158314,13.2904061 10.2629148,13.4324696 C10.3090406,13.5700782 10.3336198,13.7215466 10.3350562,13.8873698 L10.3350562,13.8956197 L10.3350562,13.9037047 L10.3350562,14.4219642 L5.87713155,14.4219642 C5.28084761,14.4219642 4.75574746,14.6011523 4.3018311,14.9588686 C3.74145827,15.4155838 3.40676677,16.0506621 3.29967188,16.8647635 C3.29967188,16.913933 3.28754191,16.9942872 3.26392038,17.105001 L3.26392038,17.3274187 C3.26392038,17.8945177 3.39543482,18.3944625 3.65734648,18.8264279 C3.91989655,19.2585584 4.29624493,19.5976298 4.78527437,19.8446322 C5.17949849,20.0289353 5.60308992,20.1216643 6.05636786,20.1216643 L10.3350562,20.1216643 L12.9133139,20.1216643 L12.9133139,14.5881175 L12.9133139,14.254986 L12.9133139,14.2386511 L12.9133139,14.2229763 L12.9133139,14.2074665 L12.9133139,12.5340541 L15.8482886,12.5340541 L15.8482886,20.1213343 L18.4263867,20.1213343 L18.4263867,12.5340541 L20.1989588,12.5340541 C20.6168045,12.5340541 20.959157,12.7548217 21.2197918,13.2004821 C21.3406127,13.4078849 21.3982301,13.6756771 21.3982301,13.9956087 L21.3982301,25.9758028 Z M10.3350562,16.254435 L7.07704125,16.254435 C6.77858007,16.254435 6.51874328,16.349639 6.29800969,16.5407069 C6.07695689,16.7324349 5.96698911,16.9512226 5.96698911,17.19806 C5.96698911,17.4325226 6.06211364,17.6176506 6.25347992,17.7537742 L6.48570506,17.8823079 C6.68872251,17.9567221 6.85630766,17.9938467 6.98718369,17.9938467 L10.3352159,17.9938467 L10.3352159,16.254435 L10.3350562,16.254435 Z" id="Fill-1" fill="#7E8183"></path>
                    <mask id="mask-2" fill="white">
                        <use xlink:href="#path-1"></use>
                    </mask>
                    <use id="Clip-4" fill="#0E557E" xlink:href="#path-1"></use>
                </g>
                <use id="Rectangle" xlink:href="#path-3"></use>
            </g>
        </g>
    </g>
</svg>

<svg width="198" height="31" viewBox="0 0 198 31" xmlns="http://www.w3.org/2000/svg" xmlns:xlink="http://www.w3.org/1999/xlink"><title>adrianmejia-logo</title><defs><path d="M26 19.372v3.874l-1.988 1.185V13.175c0-.296-.072-.605-.216-.926a3.501 3.501 0 0 0-.645-.944c-.335-.345-.684-.586-1.05-.722-.363-.136-.886-.203-1.567-.203H0V7.748l6.5-3.874L13 0l6.5 3.874L26 7.75v11.623z" id="a"/><path id="b" d="M0 0h34v34H0z"/></defs><g fill="none" fill-rule="evenodd"><g font-size="25" font-family="Orbitron-Medium, Orbitron" font-weight="400"><text fill="#0E557E" transform="translate(36)"><tspan x="0" y="24">Adrian</tspan></text><text fill="#7E8183" transform="translate(36)"><tspan x="94" y="24">Mejia</tspan></text></g><g transform="translate(-4 -2)"><g transform="translate(4 2)"><path d="M21.398 25.976l-1.927 1.15L12.981 31l-6.49-3.874L0 23.252V12.535h8.67c.334 0 .6.033.797.102.197.067.367.181.51.342.143.16.239.311.286.453.046.138.07.29.072.455v.535H5.877c-.596 0-1.121.18-1.575.537-.56.457-.895 1.092-1.002 1.906 0 .049-.012.13-.036.24v.222c0 .568.131 1.067.393 1.5.263.432.64.77 1.128 1.018.394.184.818.277 1.271.277h6.857v-7.588h2.935v7.587h2.578v-7.587H20.2c.418 0 .76.22 1.02.666.122.208.18.476.18.796v11.98zm-11.063-9.722H7.077c-.298 0-.558.096-.779.287-.221.191-.331.41-.331.657 0 .235.095.42.286.556l.233.128c.203.075.37.112.501.112h3.348v-1.74z" fill="#7E8183"/><use fill="#0E557E" xlink:href="#a"/></g><use xlink:href="#b"/></g></g></svg>
